/* XPM */
static char *result[] = {
/* columns rows colors chars-per-pixel */
"128 128 20 1 ",
"  c #130C06",
". c #340606",
"X c #2A1505",
"o c #201B1A",
"O c #353334",
"+ c #740D15",
"@ c #4A2B13",
"# c #774119",
"$ c #4E4D4D",
"% c #5E5750",
"& c #6A6968",
"* c #C51A1D",
"= c #945011",
"- c #A76225",
"; c #EF7174",
": c #D5A018",
"> c #888888",
", c #929394",
"< c #B5B9BA",
"1 c #CED2D3",
/* pixels */
"O&&&&&&&$&&&&&$&&&$&&&$&&&$&&&$&&&&&&&&&&$$&$$&&&&&&$&&&&&&&&&&$&&&&&&&$&$$$$$&&&&$&$$$$&&&&&&&&&&&&&&O$&&&&&$$$&$&&&&&&&&&&&&&o",
"O&&&&&&&$&&&&&$&&&$&&&$&&&$&&&$&&&&&&&&&&$$&&$&&&&&&&&&$&&&&&&&$&&&&&&&$&$&$$&&&&&$&&$&$&&&&&,,,,,&&&&O$&&&&&$&$&$&&&&&&&&&&&&&o",
"O$&&&&&&$&&&&&*&&&*&&&*&&&*&&&*&&&&&&&&&&$$&&$&&&&&$&&$$&&&&&&&$&&&&&&&$&$&&$&&&&&$&&&&&&&&&&&&&&&$&&&O$$+++++++&$&&&&&&&&&&&&&o",
"OO&&&&&&$&&&&$+O&$+O&$+$$$+O&$+O&&&&&&&&&$$&&&&&&&$&&$$$&&&&&&&$&$$$$$$O&&&&$&&&&&$&&&&&&&$$$$$&&&$&&&O+++*;*;;;..&&&&&&&&&&&&Oo",
"OO,,$$$$$$$$$$$O$$$O$$$$$$$O$$$O,,,,,,,,,&&,,,,,,,,,&$$$&&&&&&&$&$&$&$&$&$&$$$&$&$$&&&&&&&$$$$$$&&$&&&O$.+++++++$$$$$$$$$$$$$Ooo",
"O$&&&&&&$&&&&$$O&$$O&$$$$$$O&$$O&&&&&&&&&$$&&&&&&&&&&$$$&&&&&&&OO@O@O@O@O@O@O@O@O@$&&&&&&&OOOOOO&&$&&&O$&$$$$$$$&$&&&&&&&&&&&&Oo",
"O&&&&&&&$&&&&$$O&$$O&$$$$$$O&$$O&O&O&O&O&O$O&O&O&O&O&$$$&&&&&&&&&$&$&$&$&$&$&$&$&$&&&&&&&&&&&&&&&&$&&&O$$+++++++&$&&&&&&&&&&&&&o",
"O$&&&&&,$&&&&$$O&$$O&$$$OOOO&$$O&$&$&$&$&$$$&$&$&$&$&$$$&&&&&&&&&@&@&@&@&@&@&@&@&@&&&@&&&&&&&&&&&&$&&&O+++*;*;;;..&&&&&,,,,,,,$o",
"O$&&&&&&$&&&&$$O&$$O&$$$OOOO&$$O&&&&&&&&&&$&&&&&&&&&&$$$&&&&&&&&&@&@&@&@&@&@&@&@&@&&&@&&&&$&&&$&$$$&&&O$.+++++++$$&&&&&&&&&&&&$o",
"O$&&&&&&&$$$$$$O$$$O$$$$OOOO$$$O$$$$$$$$$$O$$$$$$$$$$$.+++++++++O$&&&&&&&&&&&&&&&&&&&&&&&&$&&&$&$$$&&&O$&$$$$$$$&$$$$$$&&&&&&&$o",
"O$&$&&&&&&&&&$$O&$$O&$$$OOOO&$$O&&&&&&&&&&$$&&$$$$$$$O.+++++++++.$$$&&$$&&$$&&$$&&$$&&$$&&$&&&$$$$$&&&O$&+++++++&$&&&&&&&&,,&&$o",
"O$&$O&&&&&&&&$$O&$$O&$$$OOOO&$$O&&&&&&&&&&O&&$$$$$$$$$$$$$$$$$$$O$&&$&&&$&&&$&&&$&&&$&&&$&$&&&$$$$$&&&O+++*;*;;;..&&&&&&&&&&$&$o",
"O$O$&&OO$&&$&OO$&OO$&OOOooo$&OO$&&&&&&&&&$$&OOOOOOOOOOOO&&&&&&&$$$&&$$&&$$&&$$&&$$&&$$&&$$&&&OOOOO$&&&O$.+++++++$$&&&&&OOO&&$O$o",
"O&&$&&&&&&&$&&&&&&&&&&&&$$$&&&&&&&&&&&&&&&$&&&&&&&&&&&&&&&&&&&&&&&&&$&&&$&&&$&&&$&&&$&&&$&&&&&&&&&&&&&O$&$$$$$$$&$&&&&&&&&&&$&&o",
"O$$O$$$$$$$O$$$$$$$$$$$$OOO$$$$$$$$$$$$$$$O$$$$$$$$$$$$$$$$$$$$$$$&&O$&&O$&&O$&&O$&&O$&&O$$$$$$$$$$$$$O$$$$$$$$$$$$$$$$$$$$$O$$o",
"XOOoOOOOOOOoOOOOOOOOOOOOoOoOOOOOOOOOOOOOOOOOOOOOOOOOOOOOOOOOOOOOOOOOoOOOoOOOoOOOoOOOoOOOoOOOOOOOOOOOOOoOOOOOOOOOOOOOOOOOOOOOoOOo",
"X@@$$$O$$$$$$$O$OOOO$$$$O$O$$OOO$$$$OOOOOOOO$$$OO@@@@$@@@@@$$$$$$$$$$$$$$$$@@@@@@@$OOOOOO$$$$$$$$$$$OOO$$$OO$$@@$OO$$@@$$O$$$$@X",
"X@O$$$O$$$$$$$O$$$$O$$$$O$$$$$OO$$$$$$$$$O$$$$$$O$@$@$$@@$$$$$$$$$$$$$$$$$$$@$@@$@$$OOOO$$$$$$$$$$$$O$O$$$$O$$$@$$O$$$@$$O$$$$@X",
"X@O$$$O$&$$&&&$&&$&$&&&&$&&&&&$$&&&&&&&&&$&&&&&&O&#&&&&##&&&&&&&&&&&&&&&&&&&&&##&&&&$$$$&&&&&&&&&&&&$&$&&&&$&&&#&&$&&&#&&O$$$O@X",
"X@&&&$O$&$O,&&&&&$&&&O&&&&&&&&O$&&OOOOOOOOOOOOOOOO@OOOO@@OOOOOOOOOOO$&&,,,,&&&##&&OOOOOOOOOOO$&&&&&&$&&###&OOOO@OO$&O&#&&O$&&&@X",
"X@OOO$O$&&$O&&&&&$&&&$O&&&&&&&$O&$$OOOOOOOOOOOOOOO@OOOO@@OOOOOOOOOO$$&&$&&&$&&#&&&$OOOOOOOOO$$&&&&&&&$$&#&&,&&&#&$&&$O#&&O$$$$@X",
"X@O$$$O$&&&$&&&&&$&&&$&&&&&&&&$$$$$$OOOOOOOO$$OOOO@OOOO@@OOOOOOOOO$$$&&$&&&$&&#&&&$$OOOOOOO$$$&&&&&&&OO$&&&,,&&#&$&&$$#&&O$OOO@X",
"X@O$$$O$&&&$&&&&&&O,&&&&&&&O&&$$$$&$$$$$$O$$$&$$$$#$$$$##$$$$$&$$$$$$&&$&&&$&&&&&&$$$$$$&&&$$$&&&&&&&OXO$&&&,,&#&$&&$&#&&O$$$O@X",
"X@O$$$O$&&&$&&&&&&$O&&&&&&&$O&O$$$&$&&&&&$&&$&$&$$#$$$&$#&&&$&&&&$&$$&&$&&&$&&&&&&$$$$$$&&&$$$&&&&O&&O@XO$&&&,,#&$&&&&#&&O$$$O@X",
"X@O$$$O$&&&$&&&&&&&$&&&&$&&$&$$$$$&$&&&&&$&&$&$&$$#$&$&$#&&&$&&&&$&$$&&$&&&$&&&&&&$$$$$$&&&$$$&&&&$O&$##XO&&&&,-&$&&&&#&&O$$$O@X",
"X@O$$$O$&&O,&&&O,&&$&&&&#$&&$$&$$$&$&&&&&$&&$&$&$$#$&$&&#&&&$&&&&$&$$&&$&&&$&&&&&&$$$&$$&&&$$$&&&&$OO$%#@XO&&&&-,$&&O&#&&O$$$O@O",
"X@O$$$O$&&$O&&&$O&&$&&&&#@&$$$$&&$&$&&&&&$&&$&$&$$#$&$&&#&&&$&&&&$&$$&&$&&&$&&&&&&$$$&$$&&&$$$&&&&$OOO%#@@XO$&&#,$&&$O#&&O$$$O@O",
"O@&&&$O&&&&$&&&&$&&$&$$&#@$$$$$$&$&$&&&&&$&&$&$&$&#$&&&&$&&&$&&&&$&$$&&$&&&$&&&&&&$$$&$$&&&$$$&&&&$$OOO##@#X$&&#&&&&$$#&&O$&&&@O",
"O@OOO$O&&&&$&&&&$&&$&O,&@@$$&$$$&$&$&$@&&$&&$&$&$&#$&&&&&&&&$&&&&$&$$&&$&&&$&&&&&&$$$&$$&&&$$$&&&&$$OO@@#@##$&&#&&&&$&#&&O$$$$@O",
"O@O$$$O&&&&$&&&&$&&$&$OO@$$&&$$$&$&$&$#&&$&&$&$&$&#$&&&&&,,,&,&&&$&$$&&$&&&$&&&&&&$$$&$$&&&$$$&&&&$$OO@@@###$&&#&&&&$&#&&O$OOO@O",
"O@O$$$O&&&&$&&&&&&&$&&OO@$&&&$$$&$&$&,#&&$&&$&$&$&#$&&&&&&&&$&$&&$&$$&&$&&&$&&&&&&$$$&$$&&&$$&&&&&$$$OO@@@##&&&#&&&&$&#&&O$$$O@O",
"O@O$$$O&&&O,&&&&&&O,&OOO@$&&&$$$&$&$&&&&&$&&$&$&$&#$&&&&&&&O$&$&&$&$$&&$&&&$&&&&&&$$$&$&&&&$$&,&&&$$$OO@@@@&&&&#&&&&O$#&&O$$$O@O",
"O@O$$$O&&&$O&&&&&&$OOOO@$$&&&$$$&$&$&&&&&$&&$&$&&&#$&&&&&&&$$&$&&$&$$&&$&&&$&&&&&&$$$&$&&&&$$$&&&&$$$&O@@@@O&&&#&&&&$O&&&O$$$O@O",
"O@O$$$O&&&&$&&&$$&&OOOO@$$&&&$$$&$&$&&&&&$&&$&$&&&#$&&&&&&&O$&$&&$&$$&&$&&&$&&&&&&$$$&$&&&&&$$&&&&$$$&&@@@O@O&&#&&&&$$&&&O$$$O@O",
"O@&&&$O&&&&$&&&O,&OOOOO@$$&&&$$$&$&$&&&&&$&&$&$&&&#$&&&&&&&$$&$&&$&$$&&$&&&$&&&&&&$$$&$&&&&$$&&&&&$$$&&#@@O@OO&#&&&&$&&&&O$&&&@O",
"O@OOO$O&&&&$&&&#@OOOOO@$$$&&&$$,,,&,,,,,,&,,$&$&&&#$&&&&&&&O$&$&&$&$$&&$&&&$&&&&&&$$$&$&&&&$$@#&&&$$$&&##@@@OOO#&&&&&&&&&O$$$$@O",
"O@O$$$O&&&&$&&&#@OOOOO@$$$&&&$$&&&&&&&&&&$&&&&$&&&#$&&&&&&&$$&$&&$&$$&&$&&&$&&&&&&$$$&$&&&&$&@&&&&$$$&&###@@@OO@&&&&&&&&&O$OOO@O",
"@@O$$$O&&&O,&&&#@OOOO@&$$$&&&$$OOO&$OOOOOOOOO&$&&&$$&&&&&&&O$&$&&$&$$&&$&&&$&&&&&&$$$&$&&&&$@@&&&&$$$&&###$@@OO@O&&&O$&&&O$$$O@@",
"O@O$$$O&&&$O&&&#OOOO@&&$$$&&&$$$&$&$&&&&&&&&$&$&&&$$&&&&&&&$$&$&&$&$$&&$&&&$&&&&&&$$$&$&&&&$@@&&&&$$$&&###$$@@@@O$&&$O&&&O$$$O@O",
"O@O$$$O&&&&$&&&$$OOO&&&$$$&&&$$,,,&,,,,,,,,,$&$&&&$$&&&&&&&&O&O&&$&$$&&$&&&$&&&&&&$$$&$&&&&@$@&&&&$$$&&###$$$@@@$$&&$&&&&O$$$O@O",
"@@O$$$O&&&&$&&&$$OO&&&&$$$&&&$$&&&&&&&&&&&&&&&$&&&$$&&&&&$$$$$$&&$&$$&&$&&&$&&&$&&$$$&$&&&&$$$#&&&$$$&&###$$&&@O$$&&&&&&&O$$$O@O",
"O@&&&$O&&&&&&&&$$O&&&&&$$$&&&$$OOO&$OOOOOOOOO&$&&&$$&&&&&&&&&&&&&$&$$&&$&&&$&&&&&&$$$&$&&&&$$$&&&&$$$&&###$&&&&O$$&&&&&&&O$&&&@O",
"O@OOO$O&&&&&&&&$$&&&&&&$$$&&&$$$&$&$&&&&&&&&$&$OOOOOOOOOOOOOOOOOO$&$$&&$&&&$&&$$&&$$$&$&&&&$$$&&&&$$$&&###$&&&&O$$&&&&&&&O$$$$@O",
"O@O$$$O&&&O,&&&$$&&&&&&$$$&&&$$$&$&$&&&&&&&&$&O @ @ O O O O O @ @O$$$&&$&&&$&&$O&&$$$&$&&&&$$$$$$$$$$&&###$&&&&O$$&&O$&&&O$OOO@O",
"O@O$$$O&&&$O&&&$$&&&&&&$$$&&&$$$&$&$&&&&&&&&$OOOO@@@OOOOOOOOOO@@#$$$$&&$&&&$&&O&&&$$$&$&&&&$$$,,,,$$$&&###$&&&&O$$&&$O&&&O$$$O@O",
"O@O$$$O&&&&$&&&$$&&&&&&$$$&&&$$$&$&$&$,,&&&&$&&&&$#$$$&$$&&$&$$##$$$$&&$&&&$&&&&&&$$$&$&&&&$$$&&&&$$$&&###$&&&&O$$&&$$&&&O$$$O@O",
"O@O$$$O&&&&$&&&$$&&&&&&$$$&&&$$$&$&$&$&$&&,,,,&&&&#&&$&&&&&&&$$##$$$$&&$&&&$&&O,&&$$$&$&&&&$$$&&&&$$$&&###$&&&&O$$&&$&&&&O$$$O@O",
"O@O$$$O&&&&$&&&$$&&&&&&&$$&&&$$$&$&$&$&$&&$,<<<,&&#&&&&&&&&&&$$##$$$$&&$&&&$&&&&&&$$$&$&&&&$$$&&&&$$$&&###$&&&&$$$&&&&&&&O$$$O@O",
"O@&&&$O&&&&$&&&$$&$,,,,,&$&&&$$&,&&$,&&$,,$&&&&&$,-,,,,,&&&&&$&##$$$$&&$&&&$&&$&&&$$$&$&&&&$$$&&&&$$$&&###$&&&&$$$&&$&&&&O$&&&@O",
"O$OOO$O&&&O,&&&$$&$$,,,,,&&&&$&,,&&&,,&&,,$&&&&&$,-,,,,&$&&&&$&##$$$$&&$&&&$&&$&&&$$$&$&&&&$$$&&&&$$$&&###$&&&&$$$&&O$&&&O$$$$$O",
"O$O$$$O&&&$O&&&$$&$$$,<<1<&&&&<<1,<,<1<,<<$&$&$$$<-,,,&$$&&&&$&##$$$$&&$&&&$&&&&&&$$$&$&&&&$$$&&&&$$$&&###$&&&&$$$&&$O&&&O$OOO$O",
"O$O$$$O&&&&$&&&$$&$$$$&&&&&&&&&&&$&$&&&$&&$&,&,,$&$$&&$$$&&&&$&##$$$$&&$&&&$&&$&&&$$$&$&&&&$$$&&&&$$$&&###&#&&&$$$&&$$&&&O$$$O$O",
"O$O$$$O&&&&$&&&$$&$$$$&&&,$&&&&&&$&$&&&$&&$&$&$&$&&&&$$$$&&&&$&##$$$$&&$&&&$&&&&&&$$$&$&&&&$$$&&&&$$$&&###&&&#&$$$&&$&&&&O$$$O$O",
"O$O$$$O&&&&&&&&$$&$$$$&&&$$&&&&&&$&$&&&$&&$&*&*&$&&&&$$$$&&&&$&##$$$$&&$&&&$&&&&&&$$$&$&&&&$$$&&&&$$$&&###&&##&$$$&&$&&&&O$$$O$O",
"O$O$$$O&&&&&&&&$$&$$$$&&&$O$&&&&&$&&&&&$&&$O*O*OO&&&&$$$$&&&&&&##$$$$&&$&&&$&&&&&&$$$&$&&&&$$$&&&&$$$&&###&&##&$$$&&$&&&&O$$$O$O",
"O$&&&$O&&&O,&&&$$&$$$$&&&&OO$$$&&$&&&&&$&&&&+&+&&&&&&$$$$&&&&&&##$$$$&&$&&&$&&&&&&$$$&$&&&&$$$&&&&$$$&&###&&&#&$$$&&O$&&&O$&&&$O",
"O$OOO$O&&&$O&&&$$&$$$$&&&&$&&&&&oooooo&$&&&&+&+&&&&&&$$$$&&&&&&##$$$$&&$&&&$&&&&&&$$$&&&&&&$$$&&&&$$$&&###&&&&&$$$&&$O&&&O$$$$$O",
"O$O$$$O&&&&$&&&$$&$$$$&&&&&&&$&&OOOOOO&$&&&&.&.&&&&&&$$$$&&&&&&##$$$$&&$&&&$&&&&&&$$$&&&&&&$$$&&&&$$$&&###&&&&&$$$&&$$&&&O$OOO$O",
"O$O$$$O&&&&$&&&$,,,,,&&&&&&&&*$&.++OOO&$&&&&$&$&&&&&&$$$$&&&&&&##$$$$&&OOOO$&&&&&&$$$&&&&&&$$$&&&&$$$&&###&&&&&$$$&&$&&&&O$$$O$O",
"O$O$$$O&&&&&&&&$,&<&,<<<,&&&&O&&OO+OOO&$&$OOOOOOO$&&&$$$$&&&&&&##$$$$&&&$&&&&&&&&&$$$&&&&&&$$$&&&&$$$&&###&&&&&$$$&&$&&&&O$$$O$O",
"O$O$$$O&&&&&&&&$&$&$&&&&&&&&&$&&OO+OOO&$&$$OOOOO$$&&&$$$$&&&&&&##$$$$&&,,,,,,,,&&&$$$&&&&&&$$$&&&&$$$&&###&&&&&$$$&&&&&&&O$$$O$O",
"O$O$$$O&&&O,&&&$&$&$&&&&&&&&&*$&.++OOO&$&$$$OOO$$$&&&$$$$,,,,,,--&$$$&&$&&&&&&&$&&$$$&&&&&&$$$&&&&$$$&&###&&&&&$$$&&O&&&&O$$$O$O",
"O$&&&$O&&&$O&&&$&$&&&&&&&&&&&O&&..+OOO&$&$$$&&&$$$&&&$$$,,,,,,,,-,&$$&&$&O&$$O&$&&$$,,,,,,,&$$&&&&$$,,,---,,,,,&$$&&$O&&&O$&&&$O",
"O$OOO$O&&&&&&&&$&$&&&&&&&&&&&$&&OO+OOO&$&$$$&&&$$$&&&$$,,<<111&,-,,&$&&$&O&$O$&$&&$,,&,&,,,,&$&&&&$,,,,---,--,,,&$&&$$&&&O$$$$$O",
"O$O$$$O&&&&&&&&$$O$$$$$$$&&&&*$&.++OOO&$&$$$&&&$$$&&&$$&&&&&&&$&##&&$&&$O@@O@OO$&&,,<<<,11<<,$&&&&,,<<<---<111<<,$&&&&&&&O$OOO$O",
"O$O$$$O&&&&&&&&$$OOO$$OOO&&&&O&&..+OOO&$&$$$&&&$$$&&&$$&&&&&&&$&#&&&$&&$$$$$$$$&&&&&&&&$&&&&&$&&&&&&&&&###&&&&&&&$&&&&&&&O$$$O$O",
"O$O$$$O&&&&&&&&$$$O$$$&&&&&&&$&&OO+OOO&$&$$$&&&$$$&&&$$&&&&&&&&&##&&$&&&$&&&&$&&&&&&&&&$&&&&&$&&&&&&&&&###&&&&&&&$&&&&&&&O$$$O$O",
"O$O$$$O&&&O,&&&$$$&$$$&&&&&&&$&&OO+OOO&$&$$$&&&$$$&&&$$$OOOOOOOO@OOO$&&&&$&&&@&&&&&&&&&$&&&&&$&&&&&&&&&###&&&&&&&$&&O&&&&O$$$O$O",
"O$O$$$O&&&$O&&&$$$&$$$&&&&&,,&,&OO+OOO&$&$$$&&&$$$&&&$$$$OOOOOOO@OO$$&&&&@#&#@&&&&$OOOOOOOOOO$&&&&$OOOO@@@OOOOOOO$&&$O&&&O$$$O$O",
"O$&&&$O&&&&$&&&$$$&$$$&&&&ooooooOO+OOO&$&$$$&&&$$$&&&$$$$$OOOOOO@O$$$&&&&$&&#@&&&&$$OOOOOOOO$$&&&&$$OOO@@@OOOOOO$$&&$&&&&O$&&&$O",
"O$OOO$O&&&&$&&&$$$&$$$&$&&OOOOOOOO+OOO&$&$$$&&&$$$&&&$$$$$&&&&&&#$$$$&&&&&&&&$&&&&$$$OOOOOO$$$&&&&$$$OO@@@OOOOO$$$&&&&&&&O$$$$$O",
"O$O$$$O&&&&$&&&$$$&$$$&O&&.+++***+.OOO&$&$$$&&&$$$&&&$$$$&&&&&&,-$$$$&&&$&&&&&&&&&$$$$$&&&$$$$&&&&$$$&&###&&&&$$$$&&&&&&&O$OOO$O",
"O$O$$$O&&&&&&&&$$$&$$$&&&&.......OOOOO&$&$$$&&&$$$&&&$$$&&&&&&&,-,$$$&&&$&&&,&$&&&$$$$$&&&$$$$&&&&$$$&&###&&&&$$$$&&&&&&&O$$$O$O",
"O$O$$$O&&&O,&&&$$,,,$$&$&&OOOOOOOOOOOO$$$$$$&&&$$$&&&$$&,&&&&&&&,,,$$&&&$&&&&&$&&&$$&,&,,,,$$$&&&&$$&,,---,,,,,$$$&&O&&&&O$$$O$O",
"O$O$$$O&&&$O&&&$,,,,,$&O&&.+++***+OOOO&$&$$$&&&$$$&&&$&,&&&&&&&&,-,,$&O&$@OOOO$&O&$&,,&,,,,,$$&&&&$&,,-----,,,,,$$&&$O&&&O$$$O$O",
"O$O$$$O&&&&$&&&,<<11<,&&&&........+OOO&$&$$$&&&$$$&&&&,<&&&&&&&&--&<,&$&&$&$&&&&$&&,,,&,,,,,,$&&&&&,,,-----,,,,,,$&&$$&&&O$$$O$O",
"O$&&&$O&&&&&&&&&$&&&&&&&&&OOOOOOO.+OO$&$&$$$&&&$$$&&&&&&$$$$$$$$$#$&&&$&$,,&,,&&$&&&&,$&,,&&&&&&&&&&&#######,,,&&&&&$$&&&O$&&&$O",
"O$OOO$O&,,,&&&&&$&&&&&&&&&&&&,,,,,,,&&&$&$$$&&&$$$&&&&&&&$&$$$$&&$&&&&$&$&&$&&$&$&&&&&&&&&&&&&&,,&&&&&####&&&&&&&&&&$&&&&O$$$$$O",
"O$O$$$O,,&&,&&&&$&&&&&&&&&&&&&&&&&&&&&&$&$$$&&&$$$&&&&&&&$&$$$$&&$&&&&$&$&&$&&$&$&&&&&&&&&&&&&&&&&&&&&##&#&&&&&&&&&&$&&&&O$OOO$O",
"O$O$$$O,,,,,&&&&$&&&&&&&&&&&&&&&&&&&&&&$&$$$&&&$$$&&&&&&&$&$$$$&&$&&&&$&$&&$&$&,&,,,,,,,,,,,,&&&&&&&&&##&&&&&&&&&&&&$&&&&O$$$O$O",
"O$O$$$O&&&&$$$$OOOOO$$$$$$$$OOOOOOOO$$&$&$$$&&&$$$&&&&&&&$&&$$&&&$&&&&$&$&&$&$&&$&&&&&&&&&&&&$,,&&&&&&##&&&&&&&&&&&&$&&&&O$$$O$O",
"O$O$$$O,,,,&&&&&$$&&&&&&&&&&&&&&&&&&&&&$&$$$&&&$$$&&&&&&&$&&$$&&&&&&&&$&$&&$&&OOO&&&&&&&&&&&&O&,&,&&&&&#&&&&&&&$&&&&&&&&&O$$$O$O",
"O$O$$$O,,,&&&$&&$$&&&$&&&$&&$&&&&&&&&&&$&$$$&&&$$$&&&&&&&$&&$$&&&&&&&&$&$&&$&&$&$&$$$$$$$$$$$&&&&&&&&&&#&&&&&&&&$&&&&&&&&O$$$O$O",
"O$&&&$O&,,&&&$,&&$,&&$,&&$&&$&&&&&&&&&&$&$$$&&&$$$&&&&&&&$&&$$&&&&&&&&$&$&&$&&$&$&&&&&&&&&&&&,&&&&&&&&&&&&&&&&$&&&&&&&&&&O$&&&$O",
"O$OOO$O&,&&&&$$$&$$$&$$$&O&&$&&&&&&&&&&$&$$O&&&$$$&&&&&&&$&&$$&&&&&&&&$&$&&$&&$&$&&$,&&$,&&$,&&&#&&&&&&&&&&&&$$$&&&&&&&&&O$$$$$O",
"O$O$$$O&,&$&&&$&&$&&&&&&&&&&&&& & & &&&$&$$.***+O$&&&&&&&&&&$$&&&&&&&&$&$&&$&&$&$&&$&$&&&$&&&$&##&&&&&&&&&&&$&$&$&&&&&&&&O$OOO$O",
"O$O$$$O&&&$&&&$&&&&&&&&&&&$&&&&O&O&O&&&O&$$O....$$&&&&&&&&&&$$&&&&&&&&$&$&&O&&$&$&&OOO&$&O&$&O#&#&&&&&&&&&&$$$$$$&&&&&&&&O$$$O$O",
"O$O$$$O&&&$&&&$&&&&&&&&&&$&,&&&$&$&$&&&$&$$$$$$$$$&&&&&&&&&&$$&&&&&&&&$&OOO@@OO&$&&&$&&OO$&@@$&&&&&&&&&&&&&&&$$$$$&&&&&&&O$$$O$O",
"O$O$$$O&&&$&&&$&&&&&&&&&&&&&&&&$&$&$&&&$&$$O&&&$$$&&&$OOOOOOOOOOOOOO$&$&$&&#&&&&$&$OOOOOOOO@O$&#&&,,,,,,,,,&&&&&&&,,&&&&&O$$$O$O",
"O$O$$$O&&&OOOOOOOOOOOOOOOOOOO&&&&&&&&&&$&$$.***+O$&&&$$OOOOOOOOOOOO$$&$&$&&&&&&&$&$$OOOOOOO@$$&&&&&&&&&&&&&&$$$$$$&&$&&&&O$$$O$O",
"O$&&&$O&&&&$$OO$$$$$O$$$$O&&&&&&&&&&&&&O&$$O....$$&&&$$$OOOOOOOOOO$$$$$&$&&&&&&&$&$$$OOOOO@@$$&&&&&&OOOOOOOOOOOOOO$&$&&&&O$&&&$O",
"O$OOO$O&&&$&&$$&&&&&&&&&&&&&&&&&&&&&&&&$&$$$$$$$$$&&&$$$&&&$$$$&&&$$$OOOOOOOOOOOOOO$$$OOO@$O$$&&&&&&$   ====    ==$&$&&&&O$$$$$O",
"O$O$$$O&&&$&&$$&&&&&&&&&&&&&&&&&&&&&&&&$&$$O&&&$$$&&&$$$&&&&&$&&&&$$OOOOOOOOOOOOOOOO$$&&$&$$$$&&&&&&$  ====    ===$&$&&&&O$OOO$O",
"O$O$$$O&&&OOOOOOOOOOOOOOOOOOO&&&&&&&&&&$&$$.***+O$&&&$$$&&&&&$&&&&$OOOOOOOOOOOOOOOOOO$&&&&$$$$&&&&&&$O::::OOOO::::$&$&&&&O$$$O$O",
"O$O$$$O&&&&&&$$$$$$$O$$$$$&&&&&&&&&&&&&O&$$O....$$&&&$$$&&&&&$&&&&OOOOOOOOOOO  OOOOOOO&&&&$$$$&&&&&&$::::OOOO::::O$&$&&&&O$$$O$O",
"O$$$$$O$&&&&&$$$O&&&&&&&&$&&&&&&&&&&&&&$&$$$$$$$$$&&&$$$&&&&&$&&&&$&$&$$&&&&&$#&&$$$$$&&&&$$$$&&&&&&$:::OOOO::::OO$&$&&&&O$$$O$O",
"O$$$$&$O&&&&&&$$O&&&&&&O$$&&$&&&$&&&&&&$&$$$&&&$$$&&&$$$&&&&&$#&&&&&$&$&&&&&$&#&&&&$&&&&&&$$$$&&&&&&,,,,,,,,,,&,,&$&$&&&O$$$$$$O",
"O$$$&O&O&&&&&&$&O$$$&&&O$$&&$&&&$$&&&&&$&$$$&&&$$$&&&$$$&&&&&$&&&&&&$&$&&&&&&&$&&&&$&&&&&&$$$$&&$&&&&&&&&&&&&&$&&$&&$&&$O&$$$$$O",
"O$$$$O$&O&&&&&$&O&$&&&&&&$OOO&&OO$&OOO&$&$$$&&&$$$&&&$$$&&&&&$&&&&&&&&&&&&&&&&$&&&&$&&&&&&$$$$&&$&&&&&&&&&&&&&$&&$&&O&&O&OO$$$$O",
"O$$$$$$$O$&O&&$&O$$$&&&O$$$$$&&$$&&$O$&$&$$O&&&$$$&&&$$$&&&&&$&&##&&&#&&&&&&&&&&&&&$&&&&&&$$$$&&$&$&&&&&&&&&&&$&&$&&O&O$$&$$$$$O",
"OOOO$$$.***+O&&&O&&&&&&O$&&&$OO&$&&&$&&$&$$.***+O$&&&$$$&&&&&$&&&#&&&&&&&&&&&&&&&&&$&&&&&&$$$$&&$&$&&&&&&&&&&&$&&$$.+++.$$$$$$$O",
"&&&&$$$O....$&&&$OOOOOOO&&&&&&&&$&&&$&&O&$$O....$$&&&$$$&&&&&&&&&&& &&&&&&&&&&&&&&&$&&&&&&&$$$&&$&$&&&&&&&&&&&$&&$$.+++.O$$O&&&O",
"$$$$O$$OO$&O$&&&&&&&&&&&&&&&&&&&$&&&$&&$&$$$$$$$$$&&&$$$&&&&&&&&&&&#&&&&&&&&$&&&&&&$&&&&&,,,&$&&$&$&&$&&&&&&&&$&&$$O$$O$$$O$$$$O",
"OOOO$$$.***+O&&&&>&&&>&&&>&&&&&&$$&&$&&$&$$$&&&$$$&&&$$$&&&&&&&&&&&#&&&&&&&&&&&&&&&$&&&,,,,,,,&&$&$&&$&&&&&&&&$&&$$.+++.$$$OOOOO",
"O$$$$$$O....$&&&O &&O &&O &&&&&&$$&&$&&$&$$&,&&$$$&&&$$$&&&&&&&&&&&#&&&&&&&&&&&&&&&&&,,,,,,,<&&&$&$&&$&&&&&&&&$&&@$.+++.O$$$$$$O",
"O$$$&O$$O$&&&&&&  &&  && X&&&&&&&OO&$&&$&$&,,,&$$$&&&$$$&&&&&&&&&&&#&&&&&&&&&&&&&&&,,,--,,<&&&&&$&$&&$&&$&&&&&$&&$$O@$O$$O$$$$$O",
"O$$$$&$o$&&&&&&&OO&&OO&&O#&&&&&&&$$&$&&$&&,,,,,&$$&&&$$$&&&&&&&&&&&#&&&&$&&&&&&&&,,,,--,<&&&##&&$&$&&$&&$&&&&&$&&$&&@&$o$&O$$$$O",
"O$$$$$o$&&&&&&&&$$&&$$&&$-&&&&&&O&&&$&&$&&,<,,,,&$&&&$$$$&&&&&&&&&&#&&$&$$&&&&&,,,,,,,<&&&&&&&&&$&$&&$&&$&&&&&$&&$&&$&&Oo$$$$$$O",
"O$$$$oO&&&&&&&&&$$&&$$&&$-&&&&&&O&&&$&&$&&&&,<,,,&&&&$$$,,,,,,,,,,,-,,,,,,,,,,,,,,,,<&&&&&&&&&,&$&$&&$&&$&&&&&$&&$&&$&&O@o$$$$$O",
"O$$$OOO&&&&&&&&&$$&&$$&&$-&&&&&&&OO&$&&$&&&&$&,<,,&&&$$,,,,,,,,,,,,-,,,,,,,,,,,&,,<&&&&&&#&&$&,&$&$&&$&&$&&&&&$&&$&&$&&$#@o$$$$O",
"O$$$OOo$&&&&&&&&$$&&$$&&$-&&&&&&&&$&$&&$&&&&$&&&,<&&&$,,,,,,,,,,,,,-,,,,,,,,,,,,,&&&&&&&#&&&OOO&$&$&&O&&O&&&&&$&&$&&$&&$$oo$$$$O",
"O$$$$$O$$&&&&&&&$$&&$$&&$-&&$$&&&&$&O&&$&&&&$&&&&&&&&&&&&&,,,,,,,&,#&&&&&&&&&&&&&&&&########$$$&O&&@OOO@@OOOOOOOOOOOO&&Oo$$$$$$O",
"O$$$$$O$$$$$$$$$$$$$$$$$$-$$$$$$$$$$O$$$$$$$$$$$$$$$$$$$$$$$$$$$$$$#$$$$$$$$$$$$$$$@$$$$$$@$$$$$O&&#&&&##&&&&&&&&&&&&&$Oo&&&&&&O",
"O&&&&&OOOOOOOOOOOOOOOOOO@@OOOOOOOOOOOOOOOOOOOOOOOOOOOOOOOOOOOOOOOOO@OOOOOOOOOOOOOOOOOOOOOOOOOOOOO&&#&&&##&&&&&&&&&&&&&OOO&&&&&&O",
"O,<<<<<<<<<<<<,<,&,,&&&####&,,,<<<<1111111<<<<,<<<,,<<,<<<<,<<,<,<,,,<<<,,,<<<,,,,,,<<<<<<<,,,<<<<<-,,,--,,,<<<<,,&&&&&&&&&&&&&O",
"O&&&,,,,,,,,&&&&&$&&$$&&&#&&&&&&&,,,,,,,,,,&&&&&&&&&&&&&,&&&&&&&&&&&&&&&&&$&,&&&&##&&&,,&&&&&&&&&,,&&&&###&&&,,&&&&<111<,,,,,,,O",
"O&&$O$$OO$$O&&&&&$&&$$&&&#&&&&&&&&&&&&&&&&&&&&&&&&&&&&&&&&$&&&&&&&&&&&$&&$$&&&####&&&&&&&&&&&&&&&&&&&&&##&&&&&&&&&&&OOOOOOOOO&&O",
"O&&&+**$+**O&&&OOOOOOOOOOXOOOOOOOOOOOOOOOOOOOOOO$&&&&O,&&O,&&O,&&O,&&O,&&O,&&&##@OOOOOOOOOOOOOOOOOOOOOOXXOOOOOOOO$&&&*;+$*;+&&&O",
"O&&&$$$$$$$&&&&&    @@==XXX ====  XX@@==    ===&&&&&&$o&&$o&&$o&&$o&&$o&&$o&&&&#&=    ====  XX@===    =@@=   X@=&&&&&$<11<<,,&&O",
"O&&OOOOOOOOO&&&&,OO:==:OO@O::::OOOO===:OOOO:::&&&&&&&$$&&&$&&&$&&$$&&&$&&$$&&&&&&,OOO::::OOO@:=::OOOO::==OOOO:=&&&&&OOO11<<,,&&O",
"O&&&+*;$+*;O&&&&&,::=:OOO@::::OOOO::::OOOO:::&,&&&&&&&$&&&&&&&$&&&$&&&$&&&&&&&&&&&,O::::OOOO=:=:OOOO:::=@OOO::$,&&&&&+*;$+*O&&&O",
"O&&&+;*O+;*O&O&O&,,:=OOOO=:::OOOO::::OOOO:::&,&&&&&&&&&&&$$&&&$&&&$&&&$&&&&&&&&&&&,,:::OOOO:=::OOOO::::@@OO::&&&O&O&&+;*O*;*&&&O",
"O&&&+++O+++O&O$O&&,,@OOO:=::OOOO::::OOOO:::&<&&&&&&Oooooooooooooooooooooooooo&&&&&&,,:OOOO::::OOOO::::OO@O::&<$&O$O&&+++O+*+&&&O",
"O&&&OOO$OOO$&$oo&&&,&<<<<&<<<<<<<<<<<<<<<<<,&&&&&&oo  o   o   o   o   o   o oo&&&&&&,<<<<<<<<<<<<<<<<<<<&<<<,&$&$oo&&OOO$OOo&&&O",
"O&&&&&&&&&&&&&&&&&&&$&&&&$&&&&&&&&&&&&&&&&&&&&&&&oo $O&$$O&$$O&$$O&$$O&$$O&$$oo&&&&&&&&&&&&&&&&&&&&&&&&&$&&&&&&&&&&&&&&&&&&&,&&O",
"O&&&&&&&&&&&&&&&&&&&$$&&&$&&&&&&&&&&&&&&&&&&&&&Ooo $&O&&&O&&&O&&&O&&&O&&&O&&& oooO&&&&&&&&&&&&&&&&&&&&&&$&&&&&&&&&&&&&&$&$&&&&&O",
"oooooooooooooooooooooooooooooooooooooooooooooooo   OOO&OOO&OOO&OOO&OOO&OOO&OO   ooooooooooooooooooooooooooooooooooooooooooooooOO",
"                                                                                                                                "
};
