/* XPM */
static char *result[] = {
/* columns rows colors chars-per-pixel */
"64 64 12 1 ",
"  c #221916",
". c #3C2625",
"X c #513936",
"o c #824B3D",
"O c #E64B14",
"+ c #F52764",
"@ c #F2840E",
"# c #EEB108",
"$ c #F0B505",
"% c #F1AF15",
"& c #ECE7D3",
"* c None",
/* pixels */
"****************************************************************",
"****************************************************************",
"****************************************************************",
"****************************************************************",
"****************************************************************",
"**********************************O*****************************",
"*********************************O@*****************************",
"*********************************@@*****************************",
"********************************O@@*****************************",
"*******************************O@@O*****************************",
"******************************O@@O******************************",
"*****************************O@#@O******************************",
"****************************O@@#O*******************************",
"****************************@#$@O*******************************",
"***************************O##$@O*******************************",
"***************************O#$$@O*******************************",
"***************************O@%$##O******************************",
"***************************O@%$##OO*****************************",
"***************************O@##$##O+****************************",
"****************************O@#&$$#@O***************************",
"****************************O@#&&%$@O***************************",
"****************************O@$%&&$$@O**************************",
"***************************O#$$&&&&$#O**************************",
"***************************@#$%&&&&##O**************************",
"**************************O@#$&&&&$#@O**************************",
"**************************O @&&&&&$#  **************************",
"************************** o %&&&$$O   *************************",
"************************** X  &&%$O  X *************************",
"************************** oo      ooX *************************",
"************************** .XooooooXXX *************************",
"*************************** XXXo..... **************************",
"****************************  XXXX.  ***************************",
"**************************** .     . ***************************",
"**************************** .. .... ***************************",
"***************************** ..... ****************************",
"******************************     *****************************",
"****************************** o.. *****************************",
"****************************** ... *****************************",
"*******************************   ******************************",
"******************************* . ******************************",
"******************************* . ******************************",
"******************************* X ******************************",
"******************************* . ******************************",
"******************************* . ******************************",
"******************************* . ******************************",
"******************************* o ******************************",
"******************************* o ******************************",
"******************************* o ******************************",
"******************************* o ******************************",
"******************************* o ******************************",
"******************************* X ******************************",
"******************************* o ******************************",
"******************************* o ******************************",
"******************************* . ******************************",
"******************************     *****************************",
"****************************** @XX *****************************",
"****************************** XXX *****************************",
"***************************** oX... ****************************",
"**************************** oXXX... ***************************",
"**************************** XX..... ***************************",
"*****************************       ****************************",
"****************************************************************",
"****************************************************************",
"****************************************************************"
};
