/* XPM */
static char *result[] = {
/* columns rows colors chars-per-pixel */
"64 64 55 1 ",
"  c #000001",
". c #00001C",
"X c #00002C",
"o c #000034",
"O c #202020",
"+ c #2C2C2C",
"@ c gray22",
"# c #700000",
"$ c #543C1C",
"% c #5C4020",
"& c #6C4824",
"* c #000040",
"= c #00004C",
"- c #00007C",
"; c #484848",
": c gray33",
"> c #646464",
", c #63747D",
"< c gray44",
"1 c #7C7C7C",
"2 c #A80000",
"3 c #E00000",
"4 c #FC0000",
"5 c #80502C",
"6 c #905C34",
"7 c #9C6038",
"8 c #A0643C",
"9 c #FC7800",
"0 c #A86840",
"q c #B47044",
"w c #BC7848",
"e c #FC5C5C",
"r c #C87C4C",
"t c #D08050",
"y c #DC8854",
"u c #E88C58",
"i c #F0945C",
"p c #FCA470",
"a c #0000A4",
"s c #0000A8",
"d c #0000B0",
"f c gray55",
"g c #989898",
"h c gray66",
"j c #B4B4B4",
"k c #FCB080",
"l c #FCB890",
"z c #FCC4A4",
"x c #FCD4BC",
"c c #C0C0C0",
"v c #D0D0D0",
"b c gainsboro",
"n c #ECECEC",
"m c gray99",
"M c None",
/* pixels */
"MMMMMMMMMMMMMMMMMMMMMMMMMMMMMMMMMMMMMMMMMMMMMMMMMMMMMMMMMMMMMMMM",
"MMMMMMMMMMMMMMMMMMMMMMMMMMMMMMMMMMMMMMMMMMMMMMMMMMMMMMMMMMMMMMMM",
"MMMMMMMMMMMMMMMMMMMMMMMMMMMMMMMMMMMMMMMMMMMMMMMMMMMMMMMMMMMMMMMM",
"MMMMMMMMMMMMMMMMMMMMMMMMMMMMMMMMMMMMMMMMMMMMMMMMMMMMMMMMMMMMMMMM",
"MMMMMMMMMMMMMMMMMMMMMMMMMMMMMMMMMMMMMMMMMMMMMMMMMMMMMMMMMMMMMMMM",
"MMMMMMMMMMMMMMMMMMMMMMMMMMMMMMMMMMMMMMMMMMMMMMMMMMMMMMMMMMMMMMMM",
"MMMMMMMMMMMMMMMMMMMMMMMMMMMMMMMMMMMMMMMMMMMMMMMMMMMMMMMMMMMMMMMM",
"MMMMMMMMMMMMMMMMMMMMMMMMMMMMMMMMMMMMMMMMMMMMMMMMMMMMMMMMMMMMMMMM",
"MMMMMMMMMMMMMMMMMMMMMMMMMMMMMMMMMMMMMMMMMMMMMMMMMMMMMMMMMMMMMMMM",
"MMMMMMMMMMMMMMMMMMMMMMMMMMMMMMMMMMMMMMMMMMMMMMMMMMMMMMMMMMMMMMMM",
"MMMMMMMMMMMMMMMMMMMMMMMMMMMMMMMMMMMMMMMMMMMMMMMMMMMMMMMMMMMMMMMM",
"MMMMMMMMMMMMMMMMMMMMMMMMMMMMMMMMMMMMMMMMMMMMMMMMMMMMMMMMMMMMMMMM",
"MMMMMMMMMMMMMMMMMMMMMMMMMMMMMMMMMMMMMMMMMMMMMMMMMMMMMMMMMMMMMMMM",
"MMMMMMMMMMMMMMMMMMMMMMMMMMMMMMMMMMMMMMMMMMMMMMMMMMMMMMMMMMMMMMMM",
"MMMMMMMMMMMMMMMMMMMMMMMMMMMMMMMMMMMMMMMMMMMMMMMMMMMMMMMMMMMMMMMM",
"MMMMMMMMMMMMMMMMMMMMMMMMMMM#--------=#MMMMMMMMMMMMMMMMMMMMMMMMMM",
"MMMMMMMMMMMMMMMMMMMMMMMMMMa34e4333222#MMMMMMMMMMMMMMMMMMMMMMMMMM",
"MMMMMMMMMMMMMMMMMMMMMMMMMM@ ::hmmh:@O@MMMMMMMMMMMMMMMMMMMMMMMMMM",
"MMMMMMMMMMMMMMMMMMMMMMMMMM@s+       @@MMMMMMMMMMMMMMMMMMMMMMMMMM",
"MMMMMMMMMMMMMMMMMMMMMMMMMMM@<ch1::@@@MMMMMMMMMMMMMMMMMMMMMMMMMMM",
"MMMMMMMMMMMMMMMMMMMMMMMMMMM%&7d85d7&%MMMMMMMMMMMMMMMMMMMMMMMMMMM",
"MMMMMMMMMMMMMMMMMMMMMMMMMMM6wpliqlpw6MMMMMMMMMMMMMMMMMMMMMMMMMMM",
"MMMMMMMMMMMMMMMMMMMMMMMMMMMMwyppppywMMMMMMMMMMMMMMMMMMMMMMMMMMMM",
"MMMMMMMMMMMMMMMMMMMMMMMMMMM 5ilxxli5 MMMMMMMMMMMMMMMMMMMMMMMMMMM",
"MMMMMMMMMMMMMMMMMMMMMMMMMMMO5uppppu5 ;MMMMMMMMMMMMMMMMMMMMMMMMMM",
"MMMMMMMMMMMMMMMMMMMMMMMMMM+  800088 ; MMMMMMMMMMMMMMMMMMMMMMMMMM",
"MMMMMMMMMMMMMMMMMMMMMMMMhb+ n wuw0$;1 f1gMMMMMMMMMMMMMMMMMMMMMMM",
"MMMMMMMMMMMMMMMMMMMMMMMvmm@+@jO    h ffjggMMMMMMMMMMMMMMMMMMMMMM",
"MMMMMMMMMMMMMMMMMMMMMMmmbm@+<O <<   cjhcgg1MMMMMMMMMMMMMMMMMMMMM",
"MMMMMMMMMMMMMMMMMMMMMmnbcj>@+<gcgcjjjjjjg1>1MMMMMMMMMMMMMMMMMMMM",
"MMMMMMMMMMMMMMMMMMMMMmbvcfc@ @<g<cjvvvhh<1>1MMMMMMMMMMMMMMMMMMMM",
"MMMMMMMMMMMMMMMMMMMMmbvchf<1 O@<<cghhh11;>:>:MMMMMMMMMMMMMMMMMMM",
"MMMMMMMMMMMMMMMMMMMMgmhh1:<1@ O@<:1ggg>>@::::MMMMMMMMMMMMMMMMMMM",
"MMMMMMMMMMMMMMMMMMMMcgg>>;>11@   @:1>>1::;;::MMMMMMMMMMMMMMMMMMM",
"MMMMMMMMMMMMMMMMMMMMmmcg1;@>>>@+  O@:>;@>>><:MMMMMMMMMMMMMMMMMMM",
"MMMMMMMMMMMMMMMMMMMMmnch>>@@:::@+O    O+>fh1:MMMMMMMMMMMMMMMMMMM",
"MMMMMMMMMMMMMMMMMMMMcbnzzt   OO9q6     ,1fhf:MMMMMMMMMMMMMMMMMMM",
"MMMMMMMMMMMMMMMMMMMMMclzpp   OOq6%     ,1ruu:MMMMMMMMMMMMMMMMMMM",
"MMMMMMMMMMMMMMMMMMMMMclkrr@;;;;;;:>>>>:;>urq:MMMMMMMMMMMMMMMMMMM",
"MMMMMMMMMMMMMMMMMMMMMMlur0<<1111<jvvjf:;Mqq7MMMMMMMMMMMMMMMMMMMM",
"MMMMMMMMMMMMMMMMMMMMMMur0<<<1fh<gggggff:M777MMMMMMMMMMMMMMMMMMMM",
"MMMMMMMMMMMMMMMMMMMMMMMM><<<fhh<ghcvvc1>MMMMMMMMMMMMMMMMMMMMMMMM",
"MMMMMMMMMMMMMMMMMMMMMMMM<fghhff:h1ffff<<MMMMMMMMMMMMMMMMMMMMMMMM",
"MMMMMMMMMMMMMMMMMMMMMMMM<<<<<<;;1ghhcjg;MMMMMMMMMMMMMMMMMMMMMMMM",
"MMMMMMMMMMMMMMMMMMMMMMMMgjjggf<>1jjvbcj<MMMMMMMMMMMMMMMMMMMMMMMM",
"MMMMMMMMMMMMMMMMMMMMMMMMgjjhgg1>1jvbbbj<MMMMMMMMMMMMMMMMMMMMMMMM",
"MMMMMMMMMMMMMMMMMMMMMMMMgvjhgg1>1jvbbbjfMMMMMMMMMMMMMMMMMMMMMMMM",
"MMMMMMMMMMMMMMMMMMMMMMMMMvjhgg1><jvbbbbbMMMMMMMMMMMMMMMMMMMMMMMM",
"MMMMMMMMMMMMMMMMMMMMMMMMMvjhgg1>;cchhhccfMMMMMMMMMMMMMMMMMMMMMMM",
"MMMMMMMMMMMMMMMMMMMMMMMMMvvhgg1>gcgfff<gcMMMMMMMMMMMMMMMMMMMMMMM",
"MMMMMMMMMMMMMMMMMMMMMMMMjvhhgg>;>:11<<<:MMMMMMMMMMMMMMMMMMMMMMMM",
"MMMMMMMMMMMMMMMMMMMMMMMMjj<<1>>;@;::>>::MMMMMMMMMMMMMMMMMMMMMMMM",
"MMMMMMMMMMMMMMMMMMMMMMMMM<<<<<>:;O+@@@+OMMMMMMMMMMMMMMMMMMMMMMMM",
"MMMMMMMMMMMMMMMMMMMMMMMMM><<<<>:;*OOOOOOMMMMMMMMMMMMMMMMMMMMMMMM",
"MMMMMMMMMMMMMMMMMMMMMMMMM:>>>>::@*oooX  MMMMMMMMMMMMMMMMMMMMMMMM",
"MMMMMMMMMMMMMMMMMMMMMMMMMMo*oX   X*oX. MMMMMMMMMMMMMMMMMMMMMMMMM",
"MMMMMMMMMMMMMMMMMMMMMMMMMMo*o.    X..  MMMMMMMMMMMMMMMMMMMMMMMMM",
"MMMMMMMMMMMMMMMMMMMMMMMMMM *oX    X    MMMMMMMMMMMMMMMMMMMMMMMMM",
"MMMMMMMMMMMMMMMMMMMMMMMMMMM ..   MX    MMMMMMMMMMMMMMMMMMMMMMMMM",
"MMMMMMMMMMMMMMMMMMMMMMMMMMM     MM     MMMMMMMMMMMMMMMMMMMMMMMMM",
"MMMMMMMMMMMMMMMMMMMMMMMMMM****o. MMMMMMMMMMMMMMMMMMMMMMMMMMMMMMM",
"MMMMMMMMMMMMMMMMMMMMMMMMMM***o.. MMMMMMMMMMMMMMMMMMMMMMMMMMMMMMM",
"MMMMMMMMMMMMMMMMMMMMMMMMMMooo    MMMMMMMMMMMMMMMMMMMMMMMMMMMMMMM",
"MMMMMMMMMMMMMMMMMMMMMMMMMMMMMMMMMMMMMMMMMMMMMMMMMMMMMMMMMMMMMMMM"
};
